packages/ffe-icons/icons/open/400/sm/image_aspect_ratio.svg

<svg xmlns="http://www.w3.org/2000/svg" height="20" viewBox="0 -960 960 960" width="20"><path d="M168-192q-29.7 0-50.85-21.162Q96-234.324 96-264.04v-432.243Q96-726 117.15-747T168-768h624q29.7 0 50.85 21.162Q864-725.676 864-695.96v432.243Q864-234 842.85-213T792-192H168Zm0-72h624v-432H168v432Zm0 0v-432 432Zm131.789-216Q315-480 325.5-490.289q10.5-10.29 10.5-25.5Q336-531 325.711-541.5q-10.29-10.5-25.5-10.5Q285-552 274.5-541.711q-10.5 10.29-10.5 25.5Q264-501 274.289-490.5q10.29 10.5 25.5 10.5Zm144 0Q459-480 469.5-490.289q10.5-10.29 10.5-25.5Q480-531 469.711-541.5q-10.29-10.5-25.5-10.5Q429-552 418.5-541.711q-10.5 10.29-10.5 25.5Q408-501 418.289-490.5q10.29 10.5 25.5 10.5Zm144 0Q603-480 613.5-490.289q10.5-10.29 10.5-25.5Q624-531 613.711-541.5q-10.29-10.5-25.5-10.5Q573-552 562.5-541.711q-10.5 10.29-10.5 25.5Q552-501 562.289-490.5q10.29 10.5 25.5 10.5Zm0 144Q603-336 613.5-346.289q10.5-10.29 10.5-25.5Q624-387 613.711-397.5q-10.29-10.5-25.5-10.5Q573-408 562.5-397.711q-10.5 10.29-10.5 25.5Q552-357 562.289-346.5q10.29 10.5 25.5 10.5Z"/></svg>

<svg xmlns="http://www.w3.org/2000/svg" height="20" viewBox="0 -960 960 960" width="20"><path d="M168-192q-29.7 0-50.85-21.16Q96-234.32 96-264.04v-432.24Q96-726 117.15-747T168-768h624q29.7 0 50.85 21.16Q864-725.68 864-695.96v432.24Q864-234 842.85-213T792-192H168Zm0-72h624v-432H168v432Zm0 0v-432 432Zm131.79-216q15.21 0 25.71-10.29t10.5-25.5q0-15.21-10.29-25.71t-25.5-10.5q-15.21 0-25.71 10.29t-10.5 25.5q0 15.21 10.29 25.71t25.5 10.5Zm144 0q15.21 0 25.71-10.29t10.5-25.5q0-15.21-10.29-25.71t-25.5-10.5q-15.21 0-25.71 10.29t-10.5 25.5q0 15.21 10.29 25.71t25.5 10.5Zm144 0q15.21 0 25.71-10.29t10.5-25.5q0-15.21-10.29-25.71t-25.5-10.5q-15.21 0-25.71 10.29t-10.5 25.5q0 15.21 10.29 25.71t25.5 10.5Zm0 144q15.21 0 25.71-10.29t10.5-25.5q0-15.21-10.29-25.71t-25.5-10.5q-15.21 0-25.71 10.29t-10.5 25.5q0 15.21 10.29 25.71t25.5 10.5Z"/></svg>
